X: 695
T: Ey Benim Mestâne Gözlüm
C: Osman Pehlivan
O: Turkey
F: http://compmusic.upf.edu/node/140
N: evic--turku--aksak--ey_benim--
N: makam= evic
N: form= turku
N: usul= aksak = 9/8
M: 9/8
L: 1/16
K: C _1/4B ^f ^c 
Q: 1/4=150
%%MIDI tuningsystem comma53
fgf^e f4 fgfe f2g2 a2 | g2 f2e2 d2e2 f2d4z2  | \
w:  ARANAĞME  |   | 
=cdcB c4 cdcB c2B2 A2 | 
w:   | 
A2 B=cB2 A2A2 G2F4z2  | fgf^e f4 fgfe f2g2 a2 | 
w:   |  ARANAĞME  | 
g2 f2e2 d2e2 f2d4z2  | =cdcB c4 cdcB c2B2 A2 | \
w:   |   | 
A2 B=cB2 A2A2 G2F4z2  | 
w:   | 
z4 f2f2 f4 a4 g2 | f4f2 g2f4e4f2  | d4 c2d2 e2f2 d6 | \
w:  Ey  be nim  mes  |  *  tâ ne  göz lüm  a  |  man   Şim di  bul *  dum   | 
e2 f2g2 a2g2 f2^e4g2  | 
w:  ben  *  *  *  se  | 
f6^e2 d2e2 f4 e2 | f2 z2e2 f2g2 f2a2 g2f2  | \
w:  ni   SAZ  |  *  Ben_ â şık *  lık   | 
e3d d2e=f ed=cB cdc2 B2 | 
w:  *  *  bil mez_ *  i *  *  *  dim  *  *  a  | 
d4=c2 d2c2 B2A2 B2c2  | A3G G3F F4 d4 =c2 | \
w:  man   O  yâr  öğ *  ret  |  ti  *  be *  ni  ah    | 
d2 z2d2 d2d4g2 =f2e2  | 
w:  *  Ben_ â şık lık   | 
d2z2 d2e2 e2d2 =c4 B2 | d4A2 B2=c4A2 B2c2  | \
w:  *  bil mez_ i *  dim  a  |  man   O  yâr  öğ ret  | 
A3G G3F F4 f4 ^e2 | 
w:  ti  *  be *  ni   SAZ  | 
fg f^ef4fg fef2 g2a2  | g2f2 e2d2 e2f2 d4 z2 | \
w:  ARANAĞME  |   | 
=cd cBc4cd cBc2 B2A2  | 
w:   | 
A2B=c B2A2 A2G2 F4 z2 | fg f^ef4fg fef2 g2a2  | 
w:   |  ARANAĞME  | 
g2f2 e2d2 e2f2 d4 z2 | =cd cBc4cd cBc2 B2A2  | \
w:   |   | 
A2B=c B2A2 A2G2 F4 z2 | 
w:   | 
z4f2 f2f4a4g2  | f4 f2g2 f4 e4 f2 | d4c2 d2e2 f2d6  | \
w:  Ey  be nim  mes  |  *  tâ ne  göz lüm  a  |  man   Şim di  bul *  dum   | 
e2f2 g2a2 g2f2 ^e4 g2 | 
w:  ben  *  *  *  se  | 
f6 ^e2d2 e2f4e2  | f2z2 e2f2 g2f2 a2g2 f2 | \
w:  ni   SAZ  |  *  Ben_ â şık *  lık   | 
e3dd2 e=fed =cBcd c2B2  | 
w:  *  *  bil mez_ *  i *  *  *  dim  *  *  a  | 
d4 =c2d2 c2B2 A2B2 c2 | A3GG3FF4d4=c2  | \
w:  man   O  yâr  öğ *  ret  |  ti  *  be *  ni  ah    | 
d2z2 d2d2 d4 g2=f2 e2 | 
w:  *  Ben_ â şık lık   | 
d2 z2d2 e2e2 d2=c4B2  | d4 A2B2 =c4 A2B2 c2 | \
w:  *  bil mez_ i *  dim  a  |  man   O  yâr  öğ ret  | 
A3GG3FF4|
w:  ti  *  be *  ni    | 


